!! G. F. Handel, Fugue No. 2 from "Sechs kleine Fugen" for keyboard, from
!! 'A Miscellaneous Collection of Instrumental Music by G.F. Handel'
!! Volume 1, Edwin Kalmus (New York) n.d. pp.183-184; in three voices.
!! NOTE:  Double-stops occur in bars 10-12, 15-17, 19, 20, 22, 23, 25, 30, 31
!!        39, 41-44, 46, 60-65 and 68.
!! NOTE:  This encoding has been validated through the use of the double-entry
!!        encoding method.
**kern	**kern	**kern
*M4/4	*M4/4	*M4/4
=1	=1	=1
1r	1r	4gg
.	.	8gg
.	.	8gg
.	.	8ee
.	.	8cc
.	.	8dd
.	.	8ee
=2	=2	=2
1r	2r	8ff
.	.	8ff
.	.	8ee
.	.	8dd
.	4cc	4ee
.	8cc	8ee
.	8cc	8ee
=3	=3	=3
1r	8b	8dd
.	8g	8b
.	8a	8cc
.	8b	8dd
.	8cc	4ee
.	8cc	.
.	8b	4ff#
.	8a	.
=4	=4	=4
4g	2b	2gg
8g	.	.
8g	.	.
8e	2cc	2gg
8c	.	.
8d	.	.
8e	.	.
=5	=5	=5
8f	2cc	2aa
8f	.	.
8e	.	.
8d	.	.
4g	2b	4.gg
4G	.	.
.	.	8ff
=6	=6	=6
4c	2cc	2ee
8c	.	.
8c	.	.
8B	2r	8dd
8G	.	8b
8A	.	8cc
8B	.	8dd
=7	=7	=7
8c	1r	8ee
8c	.	8ee
8B	.	8dd
8A	.	8cc
8B	.	[4dd
8A	.	.
8B	.	16dd]
.	.	16ee
8G	.	16dd
.	.	16ee
=8	=8	=8
8A	1r	4.cc
8G	.	.
8A	.	.
8F#	.	16dd
.	.	16cc
8G	.	[4b
8F#	.	.
8G	.	16b]
.	.	16cc
8E	.	16b
.	.	16cc
=9	=9	=9
8F#	1r	4.a
8E	.	.
8F#	.	.
8D	.	16b
.	.	16a
8E	.	[4g
8D	.	.
8E	.	16g]
.	.	16a
8C	.	16g
.	.	16a
=10	=10	=10
8D	2r	8f#
8BB	.	8g
8C	.	8.g
8D	.	.
.	.	16f#
4G	2B 2d	2g
8G	.	.
8G	.	.
=11	=11	=11
8E	2c	2g
8C	.	.
8D	.	.
8E	.	.
8F	2c 2f	2a
8F	.	.
8E	.	.
8D	.	.
=12	=12	=12
4G	4B 4d	4g
4GG	4r	8g
.	.	8g
2C	2r	8e
.	.	8c
.	.	8d
.	.	8e
=13	=13	=13
2r	1r	8f
.	.	8f
.	.	8e
.	.	8d
4c	.	4e
8c	.	8e
8c	.	8e
=14	=14	=14
8B	1r	8d
8G	.	8B
8A	.	8c
8B	.	8d
8c	.	2e
8c	.	.
8B	.	.
8A	.	.
=15	=15	=15
4d	2r	2f#
4D	.	.
4G	2B 2d	2g
8G	.	.
8G	.	.
=16	=16	=16
8F#	2d	2a
8D	.	.
8E	.	.
8F#	.	.
8G	2d 2g	2b
8A	.	.
8B	.	.
8G	.	.
=17	=17	=17
4d	4f# 4a	4dd
4D	4r	8dd
.	.	8dd
4G	2r	8b
.	.	8dd
4F#	.	8a
.	.	8dd
=18	=18	=18
4G	1r	8b
.	.	8dd
4F#	.	8a
.	.	8dd
4E	.	8g
.	.	8dd
4A	.	8dd
.	.	8cc#
=19	=19	=19
4D	2f# 2a	2dd
8D	.	.
8D	.	.
8BB	2g	2dd
8GG	.	.
8AA	.	.
8BB	.	.
=20	=20	=20
8C	2g 2cc	2ee
8C	.	.
8BB	.	.
8AA	.	.
4D	4f# 4a	4dd
4DD	4r	8dd
.	.	8dd
=21	=21	=21
2GG	1r	8b
.	.	8g
.	.	8a
.	.	8b
2r	.	8cc
.	.	8dd
.	.	8ee
.	.	8ff#
=22	=22	=22
4G	2b 2dd	2gg
8G	.	.
8G	.	.
8E	2cc	2gg
8C	.	.
8D	.	.
8E	.	.
=23	=23	=23
8F	2cc 2ff	2aa
8F	.	.
8E	.	.
8D	.	.
4G	4b 4dd	4gg
4GG	4r	8gg
.	.	8gg
=24	=24	=24
2C	1r	8ee
.	.	8cc
.	.	8dd
.	.	8ee
2r	.	8ff
.	.	8gg
.	.	8aa
.	.	8bb
=25	=25	=25
4F	2ff 2aa	2ccc
8F	.	.
8F	.	.
8E	2gg	2ccc
8C	.	.
8D	.	.
8E	.	.
=26	=26	=26
8F	1r	2r
8G	.	.
8A	.	.
8B	.	.
4c	.	4ee
8c	.	8ee
8c	.	8ee
=27	=27	=27
8B	1r	8dd
8G	.	8b
8A	.	8cc
8B	.	8dd
8c	.	8ee
8c	.	8ee
8B	.	8dd
8A	.	8cc
=28	=28	=28
4G	1r	8b
.	.	8gg
4A	.	8cc
.	.	8gg
4B	.	8dd
.	.	8gg
4c	.	8ee
.	.	8gg
=29	=29	=29
4B	1r	8dd
.	.	8gg
4A	.	8cc
.	.	8gg
4G	.	8b
.	.	8gg
4d	.	8a
.	.	8ff#
=30	=30	=30
4G	2b 2dd	2gg
8G	.	.
8G	.	.
8E	2cc	2gg
8C	.	.
8D	.	.
8E	.	.
=31	=31	=31
8F	2cc 2ff	2aa
8F	.	.
8E	.	.
8D	.	.
4G	4b 4dd	4gg
4GG	4r	8gg
.	.	8gg
=32	=32	=32
2C	1r	8ee
.	.	8cc
.	.	8dd
.	.	8ee
2r	.	8ff
.	.	8ff
.	.	8ee
.	.	8dd
=33	=33	=33
1r	4cc	4ee
.	8cc	8ee
.	8cc	8ee
.	8b	8dd
.	8g	8b
.	8a	8cc
.	8b	8dd
=34	=34	=34
2r	8cc	8ee
.	8cc	8ee
.	8b	8dd
.	8a	8cc
4g	2b	2dd
8g	.	.
8g	.	.
=35	=35	=35
8e	2cc	2ee
8c	.	.
8d	.	.
8e	.	.
8f	2a	2cc
8f	.	.
8e	.	.
8d	.	.
=36	=36	=36
4g	4b	2dd
4r	8b	.
.	8b	.
4c	2cc	2ee
8c	.	.
8c	.	.
=37	=37	=37
4B	1r	4gg
4G	.	8gg
.	.	8gg
4c	.	8ee
.	.	8gg
4B	.	8dd
.	.	8gg
=38	=38	=38
4c	1r	8ee
.	.	8gg
4B	.	8dd
.	.	8gg
4A	.	8cc
.	.	8gg
4d	.	8gg
.	.	8ff#
=39	=39	=39
4G	2b 2dd	2gg
8G	.	.
8G	.	.
4E	2r	4cc
4C	.	8cc
.	.	8cc
=40	=40	=40
4F	1r	8a
.	.	8cc
4E	.	8g
.	.	8cc
4F	.	8a
.	.	8cc
4E	.	8g
.	.	8cc
=41	=41	=41
4D	2r	8f
.	.	8cc
4G	.	8cc
.	.	8b
4C	2e 2g	2cc
8C	.	.
8C	.	.
=42	=42	=42
8BB	2g	2dd
8GG	.	.
8AA	.	.
8BB	.	.
8C	2g 2cc	2ee
8D	.	.
8E	.	.
8F	.	.
=43	=43	=43
4G	4g 4b	4dd
4GG	4r	8g
.	.	8g
2C	2r	8e
.	.	8c
.	.	8d
.	.	8e
=44	=44	=44
2r	2r	8f
.	.	8g
.	.	8a
.	.	8b
4c	2e 2g	2cc
8c	.	.
8c	.	.
=45	=45	=45
8B	1r	8dd
8G	.	8b
8A	.	8cc
8B	.	8dd
8c	.	8ee
8d	.	8ff
8e	.	8gg
8f	.	8aa
=46	=46	=46
4g	2dd 2gg	2bb
8g	.	.
8g	.	.
8e	2gg	2ccc
8c	.	.
8d	.	.
8e	.	.
=47	=47	=47
8f	1r	2r
8g	.	.
8a	.	.
8b	.	.
4cc	.	4ee
8cc	.	8ee
8cc	.	8ee
=48	=48	=48
8b	1r	8dd
8g	.	8b
8a	.	8cc
8b	.	8dd
8cc	.	8ee
8cc	.	8ee
8b	.	8dd
8a	.	8cc
=49	=49	=49
4b	1r	8dd
.	.	8gg
4a	.	8cc
.	.	8ff
4g	.	8b
.	.	8ee
4f	.	8a
.	.	8dd
=50	=50	=50
4e	2g#	2ee
8e	.	.
8e	.	.
8c	4.a	2ee
8A	.	.
8B	.	.
8c	8gn	.
=51	=51	=51
4d	4f#	2dd
8d	8f#	.
8d	8f#	.
8B	4.g	2dd
8G	.	.
8A	.	.
8B	8fn	.
=52	=52	=52
4c	4e	2cc
8c	8e	.
8c	8e	.
8A	2f	2cc
8F	.	.
8G	.	.
8A	.	.
=53	=53	=53
8B-	2f	2dd
8A	.	.
8B-	.	.
8G	.	.
8A	2e	2cc#
8G	.	.
8A	.	.
8AA	.	.
=54	=54	=54
4D	2f#	2dd
8D	.	.
8D	.	.
8BB	4.g	2dd
8GG	.	.
8AA	.	.
8BB	8fn	.
=55	=55	=55
8C	2e	2cc
8D	.	.
8E	.	.
8F	.	.
4G	2d	4.cc
4GG	.	.
.	.	8b
=56	=56	=56
2C	4e	4cc
.	4r	8cc
.	.	8cc
2r	2r	8b
.	.	8g
.	.	8a
.	.	8b
=57	=57	=57
1r	2r	8cc
.	.	8cc
.	.	8b
.	.	8a
.	4g	4b
.	8g	8b
.	8g	8b
=58	=58	=58
1r	8e	8cc
.	8c	8e
.	8d	8f
.	8e	8g
.	8f	8a
.	8f	8a
.	8e	8g
.	8d	8f
=59	=59	=59
4c	4e	1g
8c	8e	.
8c	8e	.
8B	8d	.
8G	8B	.
8A	8c	.
8B	8d	.
=60	=60	=60
8c	8e	4.g
8c	8e	.
8B	8d	.
8A	8c	8f#
4G	2B 2d	2g
8G	.	.
8G	.	.
=61	=61	=61
8E	2c	2g
8C	.	.
8D	.	.
8E	.	.
8F	2c 2f	2a
8F	.	.
8E	.	.
8D	.	.
=62	=62	=62
4G	2B 2d	4.g
4GG	.	.
.	.	8f
4C	2c	2e
8C	.	.
8C	.	.
=63	=63	=63
8BB	2G	2d
8GG	.	.
8AA	.	.
8BB	.	.
8C	2G 2c	2e
8C	.	.
8BB	.	.
8AA	.	.
=64	=64	=64
4D	2F# 2A	2d
4DD	.	.
4GG	2G 2B	2d
8GG	.	.
8GG	.	.
=65	=65	=65
8EE	2G 2c	2e
8CC	.	.
8DD	.	.
8EE	.	.
8FF	2A	2c
8FF	.	.
8EE	.	.
8DD	.	.
=66	=66	=66
[1GG	4B	4d
.	8B	8d
.	8B	8d
.	8B	8d
.	8G	8B
.	8A	8c
.	8B	8d
=67	=67	=67
1GG_	8c	8e
.	8c	8e
.	8B	8d
.	8A	8c
.	4B	4d
.	4c	4e
=68	=68	=68
2GG]	2B	2dT
2C	2E 2G	2c
====	====	====
*-	*-	*-
